X: 26340
T: Mercury Falling
R: reel
M: 4/4
K: Amajor
ABce|:f3a e2ae|faec BcAF|EFAd cBAB|cF~F2 Fage|
f3a efae|faec BcAF|EFAd cBAB|1 cF~F2 Fage:|2 cF~F2 FBAF||
EFAB c2AB|ce~f2 ecAF|EFAd cBAB|cF~F2 FBAF|
EFAB c2AB|ce~f2 efae|~f2ef aefa|edcA BAFA|
E2ed cBAB|cF~F2 FBAF|EFAB c2AB|ce~f2 ecAF|
EFAB c2AB|ce~f2 efae|~f2ef aefa|edcA BAFA||

